X: 348
T: Old Folks at Home
C:Stephen C. Foster, 1851
B: canberra pickers and fiddlers
B: old time tunes update
B: tunes
M:4/4
L:1/8
Q: 1/4=100
K:D
V:1 
%R: air, march
[| F4 E D F E | D2 d2 B d3 | A4 F2 D2 | E6 z2 |
%
   F4 E D F E | D2 d2 B d3 | A4 F> D E2 E>- E | D6 z2 :|
%
"Refrain."c3 d e2 A2 | A3 B A2 d2 | d2 B2 G2 B2 | A6 z2 |
%
   F4 E D F E | D2 d2 B d3 | A4 F> D E2 E> E | D6 z2 |]
W: 1.~'Way down up-on the Swa-nee Riv-er,    Far, far a-way,
W: All up and down de whole cre-a-tion,   Sad-ly I roam;
W: 2.~All roun' de lit-tle farm I wan-dered, When I was young;
W: When I was play-ing with my broth-er,  Hap-py was I;
W: 3.~One lit-tle hut a-mong de bush-es,     One that I love,
W: When will I see de bees a hum-ming,    All roun' de comb?
W: 1.~Dere's wha my heart is turn-ing ev-er,  Dere's wha de old folks* stay.
W: Still long-ing for de old plan-ta-tion, And for de old folks at home.
W: 2.~Den ma-ny hap-py days I squan-dered,    Ma-ny de songs I* sung.
W: Oh! take me to my kind old moth-er,     There let me live and* die.
W: 3.~Still sad-ly to my mem-'ry rush-es,     No mat-ter where i* roam.
W: When will I hear de ban-jo tum-ming,    Down in my good old* home?
W: All de world is sad and drear-y, Ev-'ry-where I roam;
W: Oh! dark-ies, how my heart grows wear-y, Far from de old folks at home.
% abcbook-tune_id 67a7d9eca922ca1437f8a3ca
% abcbook-tune_composer_id 
% abcbook-link-0 https://www.youtube.com/watch?v=uQjGlyRm8ek
% abcbook-link-title-0 Old Folks at Home, by Stephen C. Foster, 1851.
% abcbook-boost 0
% abcbook-difficulty 0
% abcbook-tags old time tunes
% abcbook-tablature 
% abcbook-transpose 
% abcbook-tuning ADAE
% abcbook-lastupdated 1739253412793
% abcbook-src-url 
% abcbook-soundfonts 
% abcbook-repeats 1
% - - - - - - - - - - - - - - -
% - - - - - - - - - - - - - - -
% Titles One title
% Transcriptions Only 1 transcription
% Movement Has some stepwise movement
% Movement Never repeats a note
% Mode major
% Key D
% Time_signature 4/4
% Text Has notes text
% Has_accompaniment_chords Has chords

